azure-patterns/svg-flow-chart.svg

<svg xmlns="http://www.w3.org/2000/svg" viewBox="0 0 49 49">
                                
                            
<path d="M36.3936 37.7944H24.6104V39.0576H36.3936V37.7944Z" fill="#50E6FF"></path>
<path d="M35.9561 35.9155L38.4558 38.4082L35.9561 40.9092V35.9155Z" fill="#50E6FF"></path>
<path d="M25.242 36.9347H23.9795V12.6147H36.394V13.8779H25.242V36.9347Z" fill="#50E6FF"></path>
<path d="M44.2049 13.3569H42.9424V40.3043H44.2049V13.3569Z" fill="#50E6FF"></path>
<path d="M36.732 25.1714H26.5479V26.4345H36.732V25.1714Z" fill="#50E6FF"></path>
<path d="M17.2057 25.1714H6.5166V26.4345H17.2057V25.1714Z" fill="#50E6FF"></path>
<path d="M43.5654 18.157C40.7879 18.157 38.5322 15.9002 38.5322 13.1212C38.5322 10.3423 40.7879 8.08545 43.5654 8.08545C46.3428 8.08545 48.5985 10.3423 48.5985 13.1212C48.5985 15.9002 46.3428 18.157 43.5654 18.157Z" fill="#0078D4"></path>
<path d="M48.5985 20.7671H38.5322V30.8387H48.5985V20.7671Z" fill="#50E6FF"></path>
<path d="M43.5654 43.3602C40.7879 43.3602 38.5322 41.1033 38.5322 38.3244C38.5322 35.5454 40.7879 33.2886 43.5654 33.2886C46.3428 33.2886 48.5985 35.5454 48.5985 38.3244C48.5985 41.1033 46.3428 43.3602 43.5654 43.3602Z" fill="#0078D4"></path>
<path d="M5.63177 30.8387C2.85428 30.8387 0.598633 28.5818 0.598633 25.8029C0.598633 23.0239 2.85428 20.7671 5.63177 20.7671C8.40925 20.7671 10.6649 23.0239 10.6649 25.8029C10.6649 28.5818 8.40925 30.8387 5.63177 30.8387Z" fill="#50E6FF"></path>
<path d="M24.5693 30.8387C21.7918 30.8387 19.5361 28.5818 19.5361 25.8029C19.5361 23.0239 21.7918 20.7671 24.5693 20.7671C27.3467 20.7671 29.6024 23.0239 29.6024 25.8029C29.6024 28.5818 27.3467 30.8387 24.5693 30.8387Z" fill="#50E6FF"></path>
<path d="M29.6024 8.06006H19.5361V18.1316H29.6024V8.06006Z" fill="#0078D4"></path>
<path d="M29.6024 33.314H19.5361V43.3855H29.6024V33.314Z" fill="#0078D4"></path>
<path d="M36.0752 23.3687L38.5665 25.8613L36.0752 28.3623V23.3687Z" fill="#50E6FF"></path>
<path d="M35.9561 10.7378L38.4558 13.2304L35.9561 15.7315V10.7378Z" fill="#50E6FF"></path>
<path d="M16.4893 23.3687L18.9806 25.8613L16.4893 28.3623V23.3687Z" fill="#50E6FF"></path>
</svg>

<svg xmlns="http://www.w3.org/2000/svg" viewBox="0 0 49 49"><path d="M36.394 37.794H24.61v1.264h11.784v-1.264z" fill="#50E6FF"/><path d="M35.956 35.916l2.5 2.492-2.5 2.501v-4.993zM25.242 36.935H23.98v-24.32h12.414v1.263H25.242v23.057zM44.205 13.357h-1.263v26.947h1.263V13.357z" fill="#50E6FF"/><path d="M36.732 25.171H26.548v1.264h10.184V25.17zM17.206 25.171H6.516v1.264h10.69V25.17z" fill="#50E6FF"/><path d="M43.565 18.157a5.037 5.037 0 0 1-5.033-5.036 5.037 5.037 0 0 1 5.033-5.036 5.037 5.037 0 0 1 5.034 5.036 5.037 5.037 0 0 1-5.034 5.036z" fill="#0078D4"/><path d="M48.599 20.767H38.532V30.84H48.6V20.767z" fill="#50E6FF"/><path d="M43.565 43.36a5.037 5.037 0 0 1-5.033-5.036 5.037 5.037 0 0 1 5.033-5.035 5.037 5.037 0 0 1 5.034 5.035 5.037 5.037 0 0 1-5.034 5.036z" fill="#0078D4"/><path d="M5.632 30.839a5.037 5.037 0 0 1-5.033-5.036 5.037 5.037 0 0 1 5.033-5.036 5.037 5.037 0 0 1 5.033 5.036 5.037 5.037 0 0 1-5.033 5.036zM24.57 30.839a5.037 5.037 0 0 1-5.034-5.036 5.037 5.037 0 0 1 5.033-5.036 5.037 5.037 0 0 1 5.033 5.036 5.037 5.037 0 0 1-5.033 5.036z" fill="#50E6FF"/><path d="M29.602 8.06H19.536v10.072h10.066V8.06zM29.602 33.314H19.536v10.072h10.066V33.314z" fill="#0078D4"/><path d="M36.075 23.369l2.491 2.492-2.49 2.501V23.37zM35.956 10.738l2.5 2.492-2.5 2.502v-4.994zM16.49 23.369l2.49 2.492-2.49 2.501V23.37z" fill="#50E6FF"/></svg>
